X: 1
T: Kinderpolka
T: Children's polka
O: Germany
Z: John Chambers <jc@trillian.mit.edu>
M: 4/4
L: 1/4
K: G
D || "G"G>A Bc | d>e dB | "D7"c>d cA | "G"B3 D \
   | G>A Bc | d>e dB | "D7"c>d cA | "G"G3 d ||
  || "G"e>d B>G | "D7"GF Fd | e>d c>F | "G"AG Gd- \
   | .g.g .gd- | "D7".f.f .fd- | f>e d/c/B/A/ | "G"G3 |]
